ViewBugHDRGreen.lrtemplate
s = {
	id = "823959EB-F4B6-4C38-BAE3-E620896DD579",
	internalName = "4ViewBugHDRGreen",
	title = "4ViewBugHDRGreen",
	type = "Develop",
	value = {
		settings = {
			AutoLateralCA = 1,
			Blacks2012 = 37,
			BlueHue = 0,
			BlueSaturation = 0,
			CameraProfile = "Adobe Standard",
			ChromaticAberrationB = 0,
			ChromaticAberrationR = 0,
			Clarity2012 = 9,
			ColorNoiseReduction = 0,
			ColorNoiseReductionDetail = 50,
			ColorNoiseReductionSmoothness = 50,
			Contrast2012 = -5,
			ConvertToGrayscale = false,
			Defringe = 0,
			DefringeGreenAmount = 0,
			DefringeGreenHueHi = 60,
			DefringeGreenHueLo = 40,
			DefringePurpleAmount = 0,
			DefringePurpleHueHi = 70,
			DefringePurpleHueLo = 30,
			Dehaze = 0,
			EnableCalibration = true,
			EnableColorAdjustments = true,
			EnableDetail = true,
			EnableEffects = true,
			EnableLensCorrections = true,
			EnableSplitToning = true,
			Exposure2012 = -0.23,
			GrainAmount = 0,
			GrainFrequency = 50,
			GrainSize = 25,
			GreenHue = 0,
			GreenSaturation = 0,
			Highlights2012 = -53,
			HueAdjustmentAqua = 28,
			HueAdjustmentBlue = 17,
			HueAdjustmentGreen = 15,
			HueAdjustmentMagenta = 0,
			HueAdjustmentOrange = 0,
			HueAdjustmentPurple = 0,
			HueAdjustmentRed = 0,
			HueAdjustmentYellow = 10,
			IncrementalTemperature = 13,
			IncrementalTint = -4,
			LuminanceAdjustmentAqua = -5,
			LuminanceAdjustmentBlue = -15,
			LuminanceAdjustmentGreen = 15,
			LuminanceAdjustmentMagenta = -11,
			LuminanceAdjustmentOrange = 1,
			LuminanceAdjustmentPurple = -6,
			LuminanceAdjustmentRed = -10,
			LuminanceAdjustmentYellow = -4,
			LuminanceNoiseReductionContrast = 0,
			LuminanceNoiseReductionDetail = 50,
			LuminanceSmoothing = 0,
			ParametricDarks = 0,
			ParametricHighlightSplit = 75,
			ParametricHighlights = 0,
			ParametricLights = 0,
			ParametricMidtoneSplit = 50,
			ParametricShadowSplit = 25,
			ParametricShadows = 0,
			PostCropVignetteAmount = 0,
			PostCropVignetteFeather = 50,
			PostCropVignetteHighlightContrast = 0,
			PostCropVignetteMidpoint = 50,
			PostCropVignetteRoundness = 0,
			PostCropVignetteStyle = 1,
			ProcessVersion = "6.7",
			RedHue = 0,
			RedSaturation = 0,
			Saturation = -4,
			SaturationAdjustmentAqua = 17,
			SaturationAdjustmentBlue = 20,
			SaturationAdjustmentGreen = 14,
			SaturationAdjustmentMagenta = 0,
			SaturationAdjustmentOrange = 8,
			SaturationAdjustmentPurple = 0,
			SaturationAdjustmentRed = 5,
			SaturationAdjustmentYellow = 0,
			ShadowTint = 0,
			Shadows2012 = 45,
			SharpenDetail = 25,
			SharpenEdgeMasking = 0,
			SharpenRadius = 1,
			Sharpness = 80,
			SplitToningBalance = 0,
			SplitToningHighlightHue = 0,
			SplitToningHighlightSaturation = 0,
			SplitToningShadowHue = 0,
			SplitToningShadowSaturation = 0,
			ToneCurveName2012 = "Custom",
			ToneCurvePV2012 = {
				25,
				0,
				181,
				205,
				219,
				231,
				255,
				255,
			},
			ToneCurvePV2012Blue = {
				0,
				0,
				255,
				255,
			},
			ToneCurvePV2012Green = {
				0,
				0,
				255,
				255,
			},
			ToneCurvePV2012Red = {
				0,
				0,
				255,
				255,
			},
			Vibrance = 22,
			VignetteAmount = 0,
			VignetteMidpoint = 50,
			WhiteBalance = "Custom",
			Whites2012 = -22,
		},
		uuid = "A1635C52-549C-468C-9B87-7A676E525AD4",
	},
	version = 0,
}
