ViewBug Moody Water.lrtemplate
s = {
	id = "1A7A66E3-AB5D-40EB-9B6E-C7E8DC836AE0",
	internalName = "ViewBug Moody Water",
	title = "ViewBug Moody Water",
	type = "Develop",
	value = {
		settings = {
			AutoLateralCA = 1,
			Blacks2012 = 2,
			BlueHue = 38,
			BlueSaturation = 33,
			CameraProfile = "Adobe Standard",
			ChromaticAberrationB = 0,
			ChromaticAberrationR = 0,
			Clarity2012 = -62,
			ColorNoiseReduction = 25,
			ColorNoiseReductionDetail = 50,
			ColorNoiseReductionSmoothness = 50,
			Contrast2012 = -11,
			ConvertToGrayscale = false,
			CropConstrainToWarp = 0,
			Defringe = 0,
			DefringeGreenAmount = 0,
			DefringeGreenHueHi = 60,
			DefringeGreenHueLo = 40,
			DefringePurpleAmount = 0,
			DefringePurpleHueHi = 70,
			DefringePurpleHueLo = 30,
			Dehaze = 0,
			EnableCalibration = true,
			EnableColorAdjustments = true,
			EnableDetail = true,
			EnableEffects = true,
			EnableLensCorrections = true,
			EnableSplitToning = true,
			Exposure2012 = 0.1,
			GrainAmount = 0,
			GrainFrequency = 50,
			GrainSize = 25,
			GreenHue = 90,
			GreenSaturation = -19,
			Highlights2012 = -33,
			HueAdjustmentAqua = 2,
			HueAdjustmentBlue = -17,
			HueAdjustmentGreen = 0,
			HueAdjustmentMagenta = 6,
			HueAdjustmentOrange = -29,
			HueAdjustmentPurple = 0,
			HueAdjustmentRed = 28,
			HueAdjustmentYellow = 3,
			IncrementalTemperature = -19,
			IncrementalTint = 0,
			LensManualDistortionAmount = 0,
			LuminanceAdjustmentAqua = -8,
			LuminanceAdjustmentBlue = -82,
			LuminanceAdjustmentGreen = 0,
			LuminanceAdjustmentMagenta = -17,
			LuminanceAdjustmentOrange = 70,
			LuminanceAdjustmentPurple = 0,
			LuminanceAdjustmentRed = -24,
			LuminanceAdjustmentYellow = 17,
			LuminanceNoiseReductionContrast = 0,
			LuminanceNoiseReductionDetail = 50,
			LuminanceSmoothing = 0,
			ParametricDarks = -11,
			ParametricHighlightSplit = 85,
			ParametricHighlights = 10,
			ParametricLights = 1,
			ParametricMidtoneSplit = 50,
			ParametricShadowSplit = 10,
			ParametricShadows = -55,
			PostCropVignetteAmount = -12,
			PostCropVignetteFeather = 50,
			PostCropVignetteHighlightContrast = 0,
			PostCropVignetteMidpoint = 50,
			PostCropVignetteRoundness = 0,
			PostCropVignetteStyle = 1,
			ProcessVersion = "6.7",
			RedHue = 38,
			RedSaturation = 17,
			Saturation = -19,
			SaturationAdjustmentAqua = 0,
			SaturationAdjustmentBlue = -9,
			SaturationAdjustmentGreen = 25,
			SaturationAdjustmentMagenta = 0,
			SaturationAdjustmentOrange = 42,
			SaturationAdjustmentPurple = 0,
			SaturationAdjustmentRed = 1,
			SaturationAdjustmentYellow = 98,
			ShadowTint = 0,
			Shadows2012 = 55,
			SharpenDetail = 25,
			SharpenEdgeMasking = 0,
			SharpenRadius = 0.6,
			Sharpness = 77,
			SplitToningBalance = 0,
			SplitToningHighlightHue = 46,
			SplitToningHighlightSaturation = 6,
			SplitToningShadowHue = 225,
			SplitToningShadowSaturation = 7,
			ToneCurveName2012 = "Custom",
			ToneCurvePV2012 = {
				11,
				24,
				37,
				38,
				156,
				156,
				255,
				255,
			},
			ToneCurvePV2012Blue = {
				0,
				0,
				255,
				255,
			},
			ToneCurvePV2012Green = {
				0,
				0,
				255,
				255,
			},
			ToneCurvePV2012Red = {
				0,
				0,
				255,
				255,
			},
			Vibrance = -29,
			VignetteAmount = 0,
			VignetteMidpoint = 50,
			WhiteBalance = "Custom",
			Whites2012 = 9,
		},
		uuid = "E459D054-E268-4E52-BC33-2A2CD772666B",
	},
	version = 0,
}
