ViewBug Spring Essential.lrtemplate
s = {
	id = "CA4BDFD4-53FC-4B2D-971D-6BD5D1CB4E94",
	internalName = "ViewBug Spring Essential",
	title = "ViewBug Spring Essential",
	type = "Develop",
	value = {
		settings = {
			AutoLateralCA = 0,
			Blacks2012 = 0,
			BlueHue = 0,
			BlueSaturation = 0,
			CameraProfile = "Camera Standard",
			ChromaticAberrationB = 0,
			ChromaticAberrationR = 0,
			Clarity2012 = 0,
			ColorNoiseReduction = 25,
			ColorNoiseReductionDetail = 50,
			ColorNoiseReductionSmoothness = 50,
			Contrast2012 = 0,
			ConvertToGrayscale = false,
			Defringe = 0,
			DefringeGreenAmount = 0,
			DefringeGreenHueHi = 60,
			DefringeGreenHueLo = 40,
			DefringePurpleAmount = 0,
			DefringePurpleHueHi = 70,
			DefringePurpleHueLo = 17,
			Dehaze = 0,
			EnableCalibration = true,
			EnableColorAdjustments = true,
			EnableDetail = true,
			EnableEffects = true,
			EnableLensCorrections = true,
			EnableSplitToning = true,
			Exposure2012 = 0,
			GrainAmount = 0,
			GrainFrequency = 50,
			GrainSize = 15,
			GreenHue = 0,
			GreenSaturation = 0,
			Highlights2012 = 0,
			HueAdjustmentAqua = 0,
			HueAdjustmentBlue = -11,
			HueAdjustmentGreen = -8,
			HueAdjustmentMagenta = 0,
			HueAdjustmentOrange = -8,
			HueAdjustmentPurple = 0,
			HueAdjustmentRed = 0,
			HueAdjustmentYellow = -18,
			LuminanceAdjustmentAqua = 0,
			LuminanceAdjustmentBlue = -12,
			LuminanceAdjustmentGreen = -11,
			LuminanceAdjustmentMagenta = 0,
			LuminanceAdjustmentOrange = -8,
			LuminanceAdjustmentPurple = -1,
			LuminanceAdjustmentRed = -1,
			LuminanceAdjustmentYellow = -9,
			LuminanceNoiseReductionContrast = 0,
			LuminanceNoiseReductionDetail = 50,
			LuminanceSmoothing = 0,
			ParametricDarks = 0,
			ParametricHighlightSplit = 75,
			ParametricHighlights = 0,
			ParametricLights = 0,
			ParametricMidtoneSplit = 50,
			ParametricShadowSplit = 25,
			ParametricShadows = 0,
			PostCropVignetteAmount = 0,
			PostCropVignetteFeather = 50,
			PostCropVignetteHighlightContrast = 0,
			PostCropVignetteMidpoint = 50,
			PostCropVignetteRoundness = 0,
			PostCropVignetteStyle = 1,
			ProcessVersion = "6.7",
			RedHue = 0,
			RedSaturation = 0,
			Saturation = -35,
			SaturationAdjustmentAqua = -4,
			SaturationAdjustmentBlue = 5,
			SaturationAdjustmentGreen = 8,
			SaturationAdjustmentMagenta = -20,
			SaturationAdjustmentOrange = 34,
			SaturationAdjustmentPurple = -20,
			SaturationAdjustmentRed = 0,
			SaturationAdjustmentYellow = 25,
			ShadowTint = 0,
			Shadows2012 = 0,
			SharpenDetail = 17,
			SharpenEdgeMasking = 0,
			SharpenRadius = 1,
			Sharpness = 14,
			SplitToningBalance = 0,
			SplitToningHighlightHue = 0,
			SplitToningHighlightSaturation = 0,
			SplitToningShadowHue = 0,
			SplitToningShadowSaturation = 0,
			ToneCurveName2012 = "Custom",
			ToneCurvePV2012 = {
				0,
				0,
				166,
				208,
				218,
				255,
			},
			ToneCurvePV2012Blue = {
				0,
				3,
				26,
				11,
				77,
				61,
				102,
				98,
				204,
				222,
				255,
				249,
			},
			ToneCurvePV2012Green = {
				0,
				5,
				26,
				19,
				77,
				71,
				102,
				105,
				204,
				219,
				255,
				250,
			},
			ToneCurvePV2012Red = {
				0,
				7,
				26,
				23,
				77,
				77,
				102,
				110,
				204,
				216,
				255,
				249,
			},
			Vibrance = 0,
			VignetteAmount = 0,
			VignetteMidpoint = 50,
			WhiteBalance = "As Shot",
			Whites2012 = 0,
		},
		uuid = "C2AA661B-884C-4C58-81D7-E251969CE841",
	},
	version = 0,
}
